assets/icons/odnoklassniki-default.svg

<svg width="24" height="24" viewBox="0 0 24 24" xmlns="http://www.w3.org/2000/svg">
  <g id="Styleguide" fill="none" fill-rule="evenodd">
    <g id="Base-Style---Icons" transform="translate(-820 -1570)">
      <g id="Odnoklassniki" transform="translate(787 1570)">
        <g transform="translate(33)" id="Odnoklassniki-Icon">
          <path id="Rectangle-115" d="M0 0H24V24H0z"/>
          <path d="M14.2889026,16.0682354 C14.619518,16.3866669 14.9070952,16.6663487 15.1977735,16.9430497 C15.8420613,17.5563575 16.4936861,18.1627587 17.1317715,18.7821007 C17.8023059,19.4329224 17.8258294,20.3404522 17.2030229,20.9587038 C16.5743922,21.5828441 15.5793692,21.5940401 14.9089861,20.9487437 C13.9745495,20.0492837 13.064544,19.1264139 12.114904,18.1845691 C11.9540968,18.3300443 11.8555399,18.414814 11.7620509,18.5044546 C10.950451,19.2827943 10.1370357,20.0594619 9.32982279,20.8420909 C8.93952869,21.2204283 8.49280835,21.4678307 7.9217385,21.4183938 C7.2766943,21.3624866 6.80940032,21.0456545 6.56796258,20.4645533 C6.31986865,19.8673124 6.43831837,19.3117294 6.89767032,18.8541477 C7.57100328,18.1834786 8.26997765,17.53651 8.95949722,16.8808901 C9.22634947,16.6271627 9.49736182,16.3775065 9.82154797,16.0745604 C9.60817207,16.0100744 9.46642572,15.9800488 9.3355713,15.9256682 C8.52971989,15.591097 7.70117695,15.2962934 6.9287577,14.9007259 C6.05316769,14.4523045 5.81452856,13.5177298 6.29483235,12.7612732 C6.76106739,12.0269904 7.70684983,11.8277163 8.54167075,12.2858069 C10.8841161,13.5711652 13.2256538,13.5697839 15.5665107,12.280427 C16.3951293,11.8239358 17.3468871,12.0329519 17.8097941,12.7708697 C18.2780714,13.5173663 18.0447269,14.4469973 17.1917528,14.886331 C16.4201656,15.2837888 15.5935892,15.5832453 14.7887211,15.920361 C14.6540091,15.9767772 14.5064386,16.0049126 14.2889026,16.0682354 Z M6.69501514,7.1756688 C6.70580302,4.31770244 9.11370324,2.04470678 12.1166082,2.05799659 C15.0418708,2.0709213 17.4270557,4.40247974 17.4064675,7.2290471 C17.3855755,10.0935123 14.9928695,12.331604 11.9659577,12.317876 C9.05345825,12.3046592 6.68430323,9.99340062 6.69501514,7.1756688 Z M12.0592501,5.1459789 C10.8680251,5.142839 9.90099051,6.04713025 9.88366912,7.1805612 C9.86657565,8.29515274 10.8927917,9.28181161 12.0606176,9.27363327 C13.2253287,9.2653819 14.2092288,8.31691298 14.2147747,7.19713695 C14.2203206,6.07385591 13.2484998,5.14904578 12.0592501,5.1459789 L12.0592501,5.1459789 Z" fill="#999"/>
        </g>
      </g>
    </g>
  </g>
</svg>

<svg width="24" height="24" viewBox="0 0 24 24" xmlns="http://www.w3.org/2000/svg">
  <g fill="none" fill-rule="evenodd">
    <path d="M0 0h24v24H0z"/>
    <path d="M14.289 16.068c.33.319.618.598.909.875.644.613 1.296 1.22 1.934 1.84.67.65.694 1.557.071 2.176-.629.624-1.624.635-2.294-.01-.934-.9-1.844-1.823-2.794-2.764-.16.145-.26.23-.353.32-.812.778-1.625 1.554-2.432 2.337-.39.378-.837.626-1.408.576-.645-.056-1.113-.372-1.354-.953-.248-.598-.13-1.153.33-1.61.673-.672 1.372-1.318 2.061-1.974.267-.254.538-.503.863-.806-.214-.065-.356-.095-.486-.15-.806-.334-1.635-.629-2.407-1.024-.876-.449-1.114-1.383-.634-2.14.466-.734 1.412-.933 2.247-.475 2.342 1.285 4.684 1.284 7.025-.006.828-.456 1.78-.247 2.243.49.468.747.235 1.677-.618 2.116-.772.398-1.598.697-2.403 1.034-.135.057-.283.085-.5.148zM6.695 7.176c.01-2.858 2.419-5.131 5.422-5.118 2.925.013 5.31 2.344 5.29 5.171-.021 2.865-2.414 5.103-5.441 5.089-2.913-.013-5.282-2.325-5.271-5.142zm5.364-2.03c-1.191-.003-2.158.901-2.175 2.035-.017 1.114 1.009 2.1 2.177 2.093 1.164-.009 2.148-.957 2.154-2.077.005-1.123-.967-2.048-2.156-2.051z" fill="#999"/>
  </g>
</svg>
